X:62
T:The Peacock Followed the Hen
R:slip jig
O:Northumbria
Z:id:hn-slipjig-62
M:9/8
K:Ador
cde cAA cAA | cde cAA B2G | cde cAA cAA | Bcd dgd B2G :|
|: cde gee gee | cde gee f2d | cde gee gee | Bcd dgd B2G :|
<end>
<start>
